X:1
T:Long Ago, Prophets Knew
T:Long Ago, Prophets Knew
T:Piae Cantiones, 1582
T:Fred Pratt Green, 1971
T:Words © 1971 Hope Publishing Company Courtesy of the Cyber Hymnal™
T:Words © 1971 Hope Publishing Company Courtesy of the Cyber Hymnal™
C:Piae Cantiones, 1582
Z:Words © 1971 Hope Publishing Company
Z:Courtesy of the Cyber Hymnal™
%%score 1 ( 2 3 ) 4
L:1/8
Q:1/4=110
M:2/2
K:C
V:1 treble 
V:2 treble 
V:3 treble 
V:4 bass 
V:1
 z8 | z8 | D2 D2 A4 | G2 G2 A4 | A2 A2 d4 x2 | B2 c2 A4 x2 | G2 A2 c4 x2 | G2 A2 F4 | E2 D2 E2 C2 | %9
w: ||1.~Long a- go,|pro- phets knew|Christ would come,|born a Jew,|Come to make|all things new,|Bear His peo- ple’s|
w: ||2.~God in time,|God in man,|This is God’s|time- less plan:|He will come,|as a man,|Born Him- self of|
w: ||3.~Mar- y, hail!|Though a- fraid,|She be- lieved,|she o- beyed.|In her womb,|God is laid|Til the time ex-|
w: ||4.~Jour- ney ends!|Where a- far|Bet- l’hem shines,|like a star,|Sta- ble door|stands a- jar:|Un- born Son of|
 D4 D4 | E2 F2 G2 C2 | D4 D4 ||"^Refrain" E2 F2 G4 | G4 G4 | F2 G2 A4 | A4 A4 | E2 F2 G4 | %17
w: bur- den,|Free- ly love and|par- don.||||||
w: wo- man,|God di- vine- ly|hu- man.|Ring, bells, ring,|ring, ring!|Sing, choirs, sing,|sing, sing!|1,2,3~When he comes,|
w: pect- ed,|Nur- tured and pro-|tect- ed.|~ ~ ~|~ ~|~ ~ ~|~ ~|4.~Je- sus comes,|
w: Mar- y,|Sav- ior, do not|ta- ry!||||||
 F2 E2 D4 | E2 D2 D2 C2 | D4 D4 |] %20
w: |||
w: when He comes,|Who will make Him|wel- ome?|
w: Je- sus comes,|We will make Him|wel- come!|
w: |||
V:2
 z8 | z8 | [F,A,D]2 [F,A,D]2 [A,EA]4 | [CG]2 [CEG]2 [CFA]4 | [DFA]2 [DFA]2 d4 [DF]2 | %5
 [EB]2 [CGc]2 A4 [CF]2 | [EB]2 [CGc]2 A4 [CF]2 | [CEG]2 [CFA]2 [CGc]4 | %8
 [G,B,E]2 [B,D]2 [G,B,E]2 [A,C]2 | [F,A,D]4 [F,A,D]4 | [E,B,E]2 [A,CF]2 [G,B,G]2 [E,A,C]2 | %11
 [G,B,D]4 [G,B,D]4 || [CE]2 [DFgc']2 [fb]2 [ea]2 | [dg]2 [cf]2 [Be]2 [Ad]2 | %14
 [DF]2 [EGgc']2 [fb]2 [ea]2 | [dg]2 [cf]2 e2 [Gd]2 | [CE]2 [DFfc']2 [eb]2 [cg]2 | %17
 [DFa]2 [EGad']2 [fc']2 [da]2 | [EGce]2 [Dd]2 [DEAd]2 [Cc]2 | [D^FAd]4 [DFAd]4 |] %20
V:3
 x8 | x8 | x8 | x8 | x4 [D-G]2 x4 | x4 [C-G]2 x4 | x4 [C-G]2 x4 | x8 | x8 | x8 | x8 | x8 || %12
 x2 [EG]4 x2 | [EG]4 [EG]4 | x2 [FA]4 x2 | [FA]4 [FA]4 | x2 [EG]4 x2 | x2 [FA]4 x2 | x8 | x8 |] %20
V:4
 D,,2 [D,D]2 [C,C]2 [B,,B,]2 | [A,,A,]2 [G,,G,]2 [F,,F,]2 [E,,E,]2 | %2
 [D,,D,]2 [B,,,B,,]2 [C,,C,]2 [A,,,A,,]2 | [E,,E,]2 [C,,C,]2 [F,,F,]2 [E,,E,]2 | %4
 [D,,D,]2 [C,,C,]2 [B,,,B,,]2 [A,,,A,,]2 x2 | [G,,G,]2 [E,,E,]2 [F,,F,]2 [A,,A,]2 x2 | %6
 [C,,C,]2 [F,,F,]2 [E,,E,]2 [C,,C,]2 x2 | [B,,,B,,]2 [A,,,A,,]2 [D,,D,]2 [B,,,B,,]2 | %8
 [E,,E,]2 [G,,G,]2 [E,,E,]2 [A,,E,]2 | [D,,D,]2 [C,,C,]2 [C,B,]2 [A,,A,]2 | %10
 [G,,G,]2 [F,,F,]2 [E,,E,]2 [A,,A,]2 | [G,,G,]2 [F,,F,]2 [E,,E,]2 [D,,D,]2 || [C,,C,]8- | %13
 [C,,C,]8 | [C,,C,]8- | [C,,C,]8 | [C,,C,]8- | [C,,C,]8 | [C,,C,]2 z2 [A,,,A,,]2 z2 | %19
 [D,,A,,D,]4 [D,,A,,D,]4 |] %20

